X: 278
T:The Braes of Auchtertyre
S:Middleton's Collection, 4th Edition
M:C
L:1/8
Q:1/4=108
K:C
E|C2 C>F E<GG>A|c>de>d       c>AG<c|A/A/A A>G A2 a2 |g<c   {g}f>e {e}d2c2 |
  C2 C>F E<GG>A|c>de>d       c>AGc |A>cG>c    F>cE>c|d/c/B/A/ c<E {E}D2C ||
f|e>fg>a g>ec>g|a/g/f/e/ d>f e>dcG |A/A/A a>g a2 c'2|e<c   {g}f>e {e}d2c>f|
  e>fg>a g>ec>g|a/g/f/e/ d>f e>dcG |A>cG>c    F>cE>c|d/c/B/A/ c<E {E}D2C |]

Probably the bext-known gap-filling tune is this, where the flattened
seventh in the last part often requires players of diatonic instruments
to cheat:

